html/dist/img/svg/pharmacy.svg

<svg width="124" height="124" viewBox="0 0 124 124" fill="none" xmlns="http://www.w3.org/2000/svg">
<circle cx="62" cy="62" r="62" fill="#F16B84"/>
<path fill-rule="evenodd" clip-rule="evenodd" d="M60.6249 30.5526C57.3752 31.3388 54.9541 34.4792 54.9541 37.9081C54.9541 38.789 55.3209 40.3678 55.6964 41.1036C56.1579 42.0076 57.1227 43.161 57.8761 43.709L58.6233 44.2526L58.6304 45.5539L58.6377 46.8551L58.1613 46.8539C57.8994 46.8532 57.3933 46.7169 57.0367 46.5509C55.9195 46.031 55.4071 45.3097 55.0224 43.7157C54.5149 41.6118 53.0305 40.0637 50.9021 39.4181C50.4466 39.2798 49.2408 39.24 45.4277 39.2372C42.738 39.2353 40.013 39.1784 39.3719 39.1109C38.7308 39.0434 36.6242 38.5891 34.6906 38.1013C31.3968 37.2704 31.1484 37.2256 30.7537 37.3905C30.0337 37.6912 29.883 38.0666 29.9707 39.3391C30.1074 41.3194 30.7524 43.0498 31.9685 44.6989C32.52 45.4465 32.5921 45.6256 32.7209 46.5664C32.9116 47.9573 33.1602 48.7598 33.7578 49.9132C34.284 50.9289 35.4376 52.4248 35.9568 52.7648C36.1261 52.8756 36.68 53.5194 37.1878 54.1953C38.866 56.4293 40.5964 57.9216 42.7466 58.9891C47.3022 61.251 52.5077 61.0343 56.7801 58.4051C57.3477 58.0559 57.9979 57.6206 58.2249 57.4379L58.6377 57.1057V59.3435V61.5814L57.5898 61.5836C54.3033 61.5906 51.566 63.287 50.1172 66.2152C49.0712 68.3291 48.9772 70.4612 49.8288 72.7573C50.2735 73.9561 50.699 74.4035 51.3948 74.4035C51.8156 74.4035 52.0045 74.3243 52.3091 74.0199C52.646 73.6831 52.685 73.5707 52.6289 73.0995C52.5937 72.8043 52.418 72.1628 52.2386 71.6741C51.4965 69.6536 52.0052 67.341 53.5177 65.8592C54.6339 64.7655 55.7299 64.3029 57.5262 64.1671L58.6377 64.083V69.751V75.4191L57.0182 75.4199C54.9555 75.4208 54.1091 75.5629 52.9932 76.0959C50.9169 77.0878 49.6128 79.1507 49.6022 81.4607C49.5942 83.1918 50.1707 84.605 51.3734 85.8017C52.8361 87.2569 53.9279 87.6064 57.0107 87.6064H59.1409L59.2161 87.9555C59.5262 89.3936 60.1063 91.4725 60.4892 92.5173C60.7403 93.2027 61.0096 93.9555 61.0876 94.1901C61.1655 94.4247 61.3836 94.7817 61.5722 94.9835C62.0489 95.4936 62.8254 95.5015 63.3235 95.0013C63.7858 94.5372 64.7028 92.0263 65.3232 89.5263L65.8076 87.5742L66.8665 87.6402C68.1812 87.7222 68.9352 88.1253 69.3926 88.9911C70.2663 90.6444 69.2299 92.5173 67.3088 92.7572C66.3288 92.8795 65.8431 93.3182 65.8431 94.0809C65.8431 94.5426 65.91 94.6951 66.2434 94.9929C66.5752 95.2891 66.758 95.3502 67.3088 95.349C68.5941 95.3464 69.8542 94.7851 70.8569 93.7686C72.7955 91.8032 72.7955 88.6147 70.8569 86.6492C69.7835 85.5611 68.5985 85.0711 67.035 85.0688L66.0964 85.0674L66.1765 84.4009C66.2206 84.0344 66.2572 82.4739 66.2577 80.9334L66.2588 78.1322L67.6305 77.9889C69.8952 77.7522 71.4517 77.0412 72.9027 75.5805C75.1028 73.3658 75.8532 70.3341 74.9538 67.2942C74.6074 66.1234 73.9075 65.0118 72.8759 63.9935C71.3174 62.4552 69.7065 61.7349 67.5608 61.6167L66.2588 61.545V59.3253V57.1057L66.6716 57.4379C66.8987 57.6206 67.5488 58.0559 68.1163 58.4051C72.3888 61.0343 77.5943 61.251 82.1499 58.9891C84.3001 57.9216 86.0305 56.4293 87.7087 54.1953C88.2165 53.5194 88.7704 52.8756 88.9397 52.7648C89.4589 52.4248 90.6124 50.9289 91.1387 49.9132C91.7361 48.7603 91.9849 47.9573 92.1752 46.569C92.3027 45.6382 92.3769 45.4518 92.8935 44.7649C94.0952 43.1671 94.7895 41.3136 94.9258 39.3391C95.0135 38.0666 94.8628 37.6912 94.1428 37.3905C93.748 37.2256 93.4997 37.2704 90.2059 38.1013C88.2722 38.5891 86.1656 39.0434 85.5246 39.1109C84.8835 39.1784 82.1584 39.2353 79.4688 39.2372C74.2839 39.241 74.0706 39.2617 72.8487 39.877C71.973 40.3182 71.2194 40.9962 70.683 41.8258C70.2283 42.5289 70.0647 42.9538 69.6968 44.3871C69.4606 45.3075 68.8664 46.04 68.0088 46.4684C67.5492 46.698 67.036 46.8551 66.7466 46.8551H66.2588L66.2661 45.5539L66.2732 44.2526L67.0204 43.709C67.7738 43.161 68.7386 42.0076 69.2001 41.1036C69.5755 40.3678 69.9424 38.789 69.9424 37.9081C69.9424 34.4474 67.5113 31.3237 64.2134 30.5466C63.2114 30.3106 61.6141 30.3133 60.6249 30.5526ZM64.1988 33.2993C67.1431 34.3843 68.2437 38.0743 66.3935 40.6569C65.4985 41.9061 64.0066 42.6657 62.4482 42.6657C60.8898 42.6657 59.398 41.9061 58.503 40.6569C56.7334 38.187 57.6399 34.6866 60.3727 33.4361C61.6365 32.858 62.8804 32.8134 64.1988 33.2993ZM38.0801 41.5765C39.0131 41.7367 40.2793 41.7771 44.3641 41.7771C47.5826 41.7771 49.7197 41.8285 50.1266 41.9157C50.9094 42.0835 51.7393 42.6873 52.1204 43.3665C52.2744 43.6407 52.4972 44.2665 52.6156 44.757C52.9105 45.9794 53.3356 46.7751 54.1483 47.6267C55.1859 48.7139 56.2909 49.2349 58.0343 49.4591L58.6377 49.5367V51.5465V53.5562L57.8479 54.287C56.1072 55.8977 54.9248 56.6476 53.1507 57.266C51.6516 57.7885 50.4651 57.9438 48.6032 57.8609C46.2548 57.7564 44.3597 57.1338 42.4907 55.8526L41.6806 55.2974L43.3954 55.2307C44.3385 55.194 45.2058 55.1181 45.3226 55.0621C45.537 54.9594 45.9358 54.2456 45.9358 53.9644C45.9358 53.607 45.5106 52.9622 45.1965 52.8433C45.0093 52.7724 44.0559 52.6838 43.0778 52.6465C42.0998 52.6092 40.9856 52.492 40.602 52.3861C38.7142 51.8656 37.0042 50.4914 36.1046 48.7718C35.6979 47.9943 35.6543 47.8457 35.8525 47.9105C35.9841 47.9536 36.5094 48.1322 37.0199 48.3076C38.1671 48.7016 39.5844 48.8863 41.4591 48.8863C43.206 48.8863 43.6981 48.7238 43.9778 48.0548C44.132 47.686 44.1414 47.5084 44.0254 47.1571C43.7688 46.3801 43.4891 46.2937 40.9243 46.2002C38.5351 46.113 38.0477 46.0195 36.7723 45.4051C35.7782 44.9261 34.9673 44.287 34.3035 43.4594C33.7244 42.7375 32.9464 41.2645 32.8029 40.6181L32.7287 40.2844L34.8202 40.8302C35.9706 41.1303 37.4375 41.4662 38.0801 41.5765ZM92.0258 40.8321C91.5166 42.6788 89.9348 44.5327 88.1241 45.4051C86.8487 46.0195 86.3614 46.113 83.9721 46.2002C81.4074 46.2937 81.1277 46.3801 80.8711 47.1571C80.7551 47.5084 80.7645 47.686 80.9187 48.0548C81.1984 48.7238 81.6905 48.8863 83.4374 48.8863C85.3121 48.8863 86.7293 48.7016 87.8766 48.3076C88.3871 48.1322 88.9124 47.9536 89.044 47.9105C89.2422 47.8457 89.1986 47.9943 88.7919 48.7718C87.8923 50.4914 86.1823 51.8656 84.2945 52.3861C83.9109 52.492 82.7967 52.6092 81.8187 52.6465C80.8406 52.6838 79.8872 52.7724 79.7 52.8433C79.3859 52.9622 78.9607 53.607 78.9607 53.9644C78.9607 54.2456 79.3594 54.9594 79.5738 55.0621C79.6907 55.1181 80.558 55.194 81.5011 55.2307L83.2159 55.2974L82.4057 55.8526C80.5368 57.1338 78.6417 57.7564 76.2933 57.8609C74.4314 57.9438 73.2449 57.7885 71.7458 57.266C69.9717 56.6476 68.7893 55.8977 67.0486 54.287L66.2588 53.5562V51.5465V49.5367L66.8622 49.4591C68.6056 49.2349 69.7106 48.7139 70.7482 47.6267C71.5608 46.7751 71.986 45.9794 72.2809 44.757C72.3993 44.2665 72.6221 43.6407 72.776 43.3665C73.1572 42.6873 73.987 42.0835 74.7699 41.9157C75.1768 41.8285 77.3139 41.7771 80.5323 41.7771C86.2821 41.7771 86.5511 41.7504 90.0381 40.836C91.176 40.5375 92.1199 40.3019 92.1355 40.3123C92.151 40.3229 92.1017 40.5567 92.0258 40.8321ZM63.7184 60.3423V75.4191H62.4482H61.178V60.3423V45.2654H62.4482H63.7184V60.3423ZM67.8854 64.2413C72.0773 64.8471 74.1312 69.7742 71.597 73.1449C70.5773 74.5014 69.1363 75.2538 67.3122 75.3825L66.2588 75.4568V69.7887V64.1205L66.6716 64.123C66.8987 64.1244 67.4449 64.1777 67.8854 64.2413ZM58.6377 80.7959C58.6377 82.2869 58.675 83.8641 58.7207 84.3011L58.8038 85.0954L56.8472 85.0434C54.6516 84.985 53.943 84.7843 53.2037 84.0117C51.407 82.1338 52.0715 79.1901 54.5036 78.2534C54.732 78.1654 55.6587 78.1004 56.7641 78.0947L58.6377 78.0851V80.7959ZM63.7173 79.9576C63.7153 83.4711 63.3554 86.7951 62.7176 89.1933C62.4871 90.0606 62.4778 90.0732 62.3358 89.7193C62.1411 89.2343 61.6037 86.5377 61.4341 85.1943C61.3592 84.6008 61.2619 82.7585 61.2178 81.1002L61.1379 78.0851H62.4282H63.7184L63.7173 79.9576ZM56.4881 93.202C55.943 93.7469 55.943 94.4149 56.4881 94.9598C56.789 95.2605 56.9912 95.3504 57.3675 95.3504C58.0544 95.3504 58.6377 94.7675 58.6377 94.0809C58.6377 93.3944 58.0544 92.8114 57.3675 92.8114C56.9912 92.8114 56.789 92.9013 56.4881 93.202Z" fill="white"/>
</svg>

<svg width="124" height="124" viewBox="0 0 124 124" fill="none" xmlns="http://www.w3.org/2000/svg"><circle cx="62" cy="62" r="62" fill="#F16B84"/><path fill-rule="evenodd" clip-rule="evenodd" d="M60.625 30.553c-3.25.786-5.67 3.926-5.67 7.355 0 .881.366 2.46.741 3.196.462.904 1.427 2.057 2.18 2.605l.747.544.007 1.3.008 1.302-.477-.001c-.262 0-.768-.137-1.124-.303-1.117-.52-1.63-1.241-2.015-2.835-.507-2.104-1.991-3.652-4.12-4.298-.455-.138-1.661-.178-5.474-.18-2.69-.003-5.415-.06-6.056-.127-.641-.068-2.748-.522-4.681-1.01-3.294-.83-3.543-.875-3.937-.71-.72.3-.871.676-.783 1.948.136 1.98.781 3.71 1.997 5.36.552.748.624.927.753 1.867.19 1.391.44 2.194 1.037 3.347.526 1.016 1.68 2.512 2.199 2.852.17.11.723.754 1.23 1.43 1.679 2.234 3.41 3.727 5.56 4.794 4.555 2.262 9.76 2.045 14.033-.584.568-.35 1.218-.784 1.445-.967l.413-.332v4.475l-1.048.003c-3.287.007-6.024 1.703-7.473 4.631-1.046 2.114-1.14 4.246-.288 6.542.444 1.2.87 1.646 1.566 1.646.42 0 .61-.079.914-.383.337-.337.376-.45.32-.92-.035-.296-.211-.937-.39-1.426-.742-2.02-.234-4.333 1.279-5.815 1.116-1.093 2.212-1.556 4.008-1.692l1.112-.084v11.336h-1.62c-2.063.002-2.909.144-4.025.677a5.939 5.939 0 00-3.39 5.365c-.009 1.73.568 3.144 1.77 4.34 1.463 1.456 2.555 1.805 5.638 1.805h2.13l.075.35c.31 1.438.89 3.516 1.273 4.561.251.686.52 1.439.599 1.673.078.235.296.592.484.794.477.51 1.253.517 1.752.017.462-.464 1.379-2.975 2-5.475l.484-1.952 1.058.066c1.315.082 2.07.485 2.527 1.351.873 1.653-.163 3.526-2.084 3.766-.98.122-1.466.561-1.466 1.324 0 .462.067.614.4.912.332.296.515.357 1.066.356 1.285-.003 2.545-.564 3.548-1.58a5.085 5.085 0 000-7.12c-1.073-1.088-2.258-1.578-3.822-1.58l-.939-.002.08-.666c.045-.367.081-1.927.082-3.468v-2.8l1.373-.144c2.264-.237 3.82-.948 5.272-2.409 2.2-2.214 2.95-5.246 2.05-8.286-.346-1.17-1.046-2.282-2.077-3.3-1.559-1.539-3.17-2.26-5.315-2.377l-1.302-.072v-4.44l.413.333c.227.183.877.618 1.444.967 4.273 2.63 9.478 2.846 14.034.584 2.15-1.067 3.88-2.56 5.559-4.794.507-.676 1.061-1.32 1.23-1.43.52-.34 1.673-1.836 2.2-2.852.597-1.153.846-1.956 1.036-3.344.128-.93.202-1.117.719-1.804a10.116 10.116 0 002.032-5.426c.087-1.272-.063-1.648-.783-1.948-.395-.165-.643-.12-3.937.71-1.934.488-4.04.942-4.681 1.01-.642.067-3.367.124-6.056.126-5.185.004-5.398.025-6.62.64a5.583 5.583 0 00-2.166 1.949c-.455.703-.618 1.128-.986 2.561a3.169 3.169 0 01-1.688 2.081c-.46.23-.973.387-1.262.387h-.488l.007-1.301.007-1.301.747-.544c.754-.548 1.719-1.701 2.18-2.605.376-.736.742-2.315.742-3.196 0-3.46-2.43-6.584-5.729-7.361-1.002-.236-2.599-.234-3.588.006zm3.574 2.746c2.944 1.085 4.045 4.775 2.195 7.358-.895 1.25-2.387 2.009-3.946 2.009-1.558 0-3.05-.76-3.945-2.01-1.77-2.469-.863-5.97 1.87-7.22 1.264-.578 2.507-.623 3.826-.137zM38.08 41.577c.933.16 2.2.2 6.284.2 3.219 0 5.356.051 5.763.139.782.168 1.612.771 1.993 1.45.154.275.377.9.496 1.391.294 1.222.72 2.018 1.532 2.87 1.038 1.087 2.143 1.608 3.886 1.832l.604.078v4.02l-.79.73c-1.74 1.61-2.923 2.36-4.697 2.979-1.5.523-2.686.678-4.548.595-2.348-.105-4.243-.727-6.112-2.008l-.81-.556 1.714-.066c.944-.037 1.81-.113 1.928-.169.214-.103.613-.816.613-1.098 0-.357-.425-1.002-.74-1.12-.187-.072-1.14-.16-2.118-.197-.978-.038-2.092-.155-2.476-.26-1.888-.521-3.598-1.896-4.497-3.615-.407-.778-.45-.926-.252-.861.131.043.656.221 1.167.397 1.147.394 2.564.578 4.44.578 1.746 0 2.238-.162 2.518-.831.154-.369.163-.547.047-.898-.256-.777-.536-.863-3.1-.957-2.39-.087-2.877-.18-4.153-.795a6.976 6.976 0 01-2.468-1.946c-.58-.722-1.358-2.195-1.501-2.84l-.074-.335 2.091.546c1.15.3 2.617.636 3.26.747zm53.946-.745c-.51 1.847-2.091 3.7-3.902 4.573-1.275.614-1.763.708-4.152.795-2.565.094-2.844.18-3.1.957-.117.351-.108.529.047.898.28.669.772.831 2.518.831 1.875 0 3.292-.184 4.44-.578.51-.176 1.035-.354 1.167-.398.198-.064.155.084-.252.862-.9 1.72-2.61 3.094-4.498 3.614-.383.106-1.497.223-2.475.26-.978.038-1.932.126-2.119.197-.314.12-.74.764-.74 1.121 0 .282.4.995.614 1.098.117.056.984.132 1.927.169l1.715.066-.81.556c-1.87 1.28-3.764 1.903-6.113 2.008-1.862.083-3.048-.072-4.547-.595-1.774-.618-2.957-1.368-4.697-2.979l-.79-.73v-4.02l.603-.078c1.744-.224 2.849-.745 3.886-1.832.813-.852 1.238-1.648 1.533-2.87.118-.49.341-1.116.495-1.39.381-.68 1.211-1.283 1.994-1.451.407-.087 2.544-.139 5.762-.139 5.75 0 6.02-.027 9.506-.941 1.138-.298 2.082-.534 2.097-.524.016.01-.033.245-.11.52zm-28.308 19.51V75.42h-2.54V45.265h2.54v15.077zm4.167 3.9c4.192.605 6.246 5.532 3.712 8.903-1.02 1.356-2.46 2.109-4.285 2.237l-1.053.075V64.12l.413.002c.227.001.773.055 1.213.118zm-9.247 16.554c0 1.49.037 3.068.083 3.505l.083.794-1.957-.052c-2.195-.058-2.904-.259-3.643-1.031-1.797-1.878-1.133-4.822 1.3-5.759.228-.088 1.155-.153 2.26-.158l1.874-.01v2.71zm5.08-.838c-.003 3.513-.363 6.837-1 9.235-.23.868-.24.88-.382.526-.195-.485-.732-3.181-.902-4.525-.075-.593-.172-2.436-.216-4.094l-.08-3.015h2.58v1.873zm-7.23 13.244c-.545.545-.545 1.213 0 1.758.301.3.503.39.88.39.686 0 1.27-.582 1.27-1.27a1.29 1.29 0 00-1.27-1.269c-.377 0-.579.09-.88.391z" fill="#fff"/></svg>
